web/workspace/public/assets/icons/white/write.svg

<svg height="30" viewBox="0 0 30 30" width="30" xmlns="http://www.w3.org/2000/svg"><path d="m23 2c-1.141 0-2.55.45-3.55 1.45l-16.45 16.45-1 8.1 8.1-1 16.45-16.449c1.054-1.056 1.45-2.488 1.45-3.551a5 5 0 0 0 -5-5zm-14.1 20.5 13.6-13.6 1.436 1.436-13.6 13.6zm-1.4-1.4-1.436-1.436 13.6-13.6 1.436 1.436zm-2.651.148 3.902 3.903-4.452.55zm20.462-12.338-4.221-4.221c.615-.491 1.388-.689 1.91-.689 1.654 0 3 1.346 3 3 0 .523-.198 1.295-.689 1.91z" fill="#fff"/></svg>

<svg xmlns="http://www.w3.org/2000/svg" width="30" height="30" viewBox="0 0 30 30"><path d="M23 2c-1.141 0-2.55.45-3.55 1.45L3 19.9 2 28l8.1-1 16.45-16.449C27.604 9.495 28 8.063 28 7a5 5 0 0 0-5-5zM8.9 22.5L22.5 8.9l1.436 1.436-13.6 13.6L8.9 22.5zm-1.4-1.4l-1.436-1.436 13.6-13.6L21.1 7.5 7.5 21.1zm-2.651.148l3.902 3.903-4.452.55.55-4.453zM25.311 8.91L21.09 4.689C21.705 4.198 22.478 4 23 4c1.654 0 3 1.346 3 3 0 .523-.198 1.295-.689 1.91z" fill="#fff"/></svg>
